X: 1
T: Magnie o' da Daeks
C: Tom Amderson
R: jig
Z: 2006 John Chambers <jc:trillian.mit.edu>
M: 6/8
L: 1/8
K: D
B \
| "D"A2f "D7"fef | "G"Bgg     gfg | "D"afd "Bm"dcd | "E7"fee "A7"e2A \
| "D"A2f "D7"fef | "G"Bgg "Em"g2g | "D"afd "A7"cde |  "D"fdd     d2 :|
|: A \
| "D"FAd fdA | "E7"^GBe e2d | "Am"cBA gfe | "D"dfd "A7"A2G \
| "D"FAd fdA | "E7"^GBe e2d | "Am"cBA gfe | "D"fdd  "D"d2 :|
